X:49
T:Cream Pot. Ru1.049
%%VWML:RutherfordVol1-2248-p25-0p25
Z:Transcription by Village Music Project, Steve Mansfield July 2015
F:http://www.village-music-project.org.uk/
F:http://www.vwml.org/record/RutherfordVol1/2248/p25
N: There is a hand written note after the title "SAME IN THOM 1"
M:6/8
Q:3/8=110
K:G
G2B B2d|dBd e/f/ge|G2B B2d|dBG AFD|
E2C CEG|F2D DA,G,|(B/c/d)B cAF|G3G,3 :|
|: d2f f2g|gdA dBG|(c/d/e)c Aag|fed e^cA|
(af/g/)a g2e|f2d e^cA|(B/^c/d)F Edc|d3D3|
=c3 cec|B3 BdB|AFA AGc|dBG AFD|
E2C CEG|F2D DB,G,|(B/c/d)B cAF|G3 G,3 |]
W:
W: Cast off one Cu. & turn your Partner .|  The 2d Cu. does
W: the same :|  Cross over two Cu. Lead up to the Top Foot
W: it & cast off .|.  Hands across quite rond with the 3d. Cu.
W: Right Hand & Left with the Top Cu. :|
|:
T:Suky bids me. Ru1.050
L:1/8
B:RUTHERFORD Complete Collection of 200 Country Dances Vol.1; London: David & John Rutherford 1756.
Z:vmp.Mike Hicken 2015 www.village-music-project.org.uk
M:C|
Q:1/2=100
K:G
G2 DE G2e2|dBAG AFED|G2 DE G2e2|dBcA  G4 :|
|: d2 Bc d2g2|fafd ege^c|d2 Bc d2g2|fae^c d4|
dgfe dcBA|B2 BG AFED|G2 DE G2e2|dBcA G4|]
W:
W: Cast off & turn your Partner .|  Cast
W: up & turn your Partner :|  Cross over two
W: Cu. .|.  Lead up to the Top Foot it & cast off
W: :||:  Foot it Corners & turn .||  Foot it to the other
W: Corners & turn :||  Lead out each Side? and
W: turn your Partner :|
|:
